storage/app/icons/phosphoricons/duotone/folder-simple-dashed-duotone.svg

<svg xmlns="http://www.w3.org/2000/svg" fill="currentColor" viewBox="0 0 256 256"><path d="M224 88v112.89a7.11 7.11 0 0 1-7.11 7.11H40a8 8 0 0 1-8-8V64a8 8 0 0 1 8-8h53.33a8 8 0 0 1 4.8 1.6l27.74 20.8a8 8 0 0 0 4.8 1.6H216a8 8 0 0 1 8 8" opacity=".2"/><path d="M24 80V64a16 16 0 0 1 16-16h53.33a16.12 16.12 0 0 1 9.6 3.2l29.87 22.4a8 8 0 1 1-9.6 12.8L93.33 64H40v16a8 8 0 0 1-16 0m64 120H40v-8a8 8 0 0 0-16 0v8.62A15.4 15.4 0 0 0 39.38 216H88a8 8 0 0 0 0-16m72 0h-32a8 8 0 0 0 0 16h32a8 8 0 0 0 0-16m64-56a8 8 0 0 0-8 8v48h-16a8 8 0 0 0 0 16h16.89A15.13 15.13 0 0 0 232 200.89V152a8 8 0 0 0-8-8m-8-72h-48a8 8 0 0 0 0 16h48v24a8 8 0 0 0 16 0V88a16 16 0 0 0-16-16M32 160a8 8 0 0 0 8-8v-32a8 8 0 0 0-16 0v32a8 8 0 0 0 8 8"/></svg>

<svg xmlns="http://www.w3.org/2000/svg" viewBox="0 0 256 256" fill="currentColor"><path d="M224,88V200.89a7.11,7.11,0,0,1-7.11,7.11H40a8,8,0,0,1-8-8V64a8,8,0,0,1,8-8H93.33a8,8,0,0,1,4.8,1.6l27.74,20.8a8,8,0,0,0,4.8,1.6H216A8,8,0,0,1,224,88Z" opacity="0.2"/><path d="M24,80V64A16,16,0,0,1,40,48H93.33a16.12,16.12,0,0,1,9.6,3.2L132.8,73.6a8,8,0,1,1-9.6,12.8L93.33,64H40V80a8,8,0,0,1-16,0ZM88,200H40v-8a8,8,0,0,0-16,0v8.62A15.4,15.4,0,0,0,39.38,216H88a8,8,0,0,0,0-16Zm72,0H128a8,8,0,0,0,0,16h32a8,8,0,0,0,0-16Zm64-56a8,8,0,0,0-8,8v48H200a8,8,0,0,0,0,16h16.89A15.13,15.13,0,0,0,232,200.89V152A8,8,0,0,0,224,144Zm-8-72H168a8,8,0,0,0,0,16h48v24a8,8,0,0,0,16,0V88A16,16,0,0,0,216,72ZM32,160a8,8,0,0,0,8-8V120a8,8,0,0,0-16,0v32A8,8,0,0,0,32,160Z"/></svg>
